X:18
T: Tai shitou
N: C0022
O: China, Shaanxi, Nanzheng(suedl. d. Qinling-Gebirges)
S: I, 71]
N: ]
R: Haozi, Tiaotai haozi. Taishi laodong zhong chang]
M: 2/4
L: 1/16
K: Bb
d2dfd4 | d2b2g4 | d4c4 | d2c2b4 |
g2bcb4 | g2bgf4 | gbg2b4 | g2fgb2g2 | f8

